X:3
T:Cherish the Ladies
R:jig
N:Bar 3 of 1st and 2nd part also |BEE B,EE|
D:Paddy Glackin: Ceol ar an bhFidil le Paddy Glackin
Z:id:hn-jig-107
M:6/8
K:D
dFF AFE|DFA AFA|BEE GEE|FDF AFA|dFF AFE|DFA AFA|Bcd efg|1 fdc d2c:|2 fdc
 d2A||
|:dfd cec|dfd AFA|BEE GFE|FDF ABc|dfd cec|dcd AFA|Bcd efg|fdc d2A:|
|:~d3 fed|afd fed|~B3 ~g3|ece gfe|1 dcd fed|afd efg|fdB AGF|GEF GFE
:|2 ~a3 bgb|afa g2e|fdB AGF|GEF GFE|:ADD AGF|ADD AdB|ADD AGF|GEF GFE|
ADD AGF|ADD AB=c|BGB AFA|GEF GFE:||:DFA dAF|DFA BGE|DFA dAF|GEF GFE|
DFA ~d3|Bcc AB=c|BGB AFA|GEF GFE:|

